X:15440
%10704
T:Merry Blacksmith, The
C:Trad.
S:Begged, Borrowed or Stolen
K:Cmaj
M:4/4
||G2
%Error : Bar 1 is 1/4 not 4/4
| c3 G AGEG | GAcG AGEG | GAcd e2 dc | A2 d2 dfed |
c2 cG AGEG | GAcG AGEG | GAcd e2 dc | cAGE C2:|

%Error : Bar 10 is 3/4 not 4/4
||ef 
%Error : Bar 11 is 1/4 not 4/4
| g2 gf e2 ed | c2 cG AGEG | GAcd e2 dc | A2 d2 dfed|
gagf efed | c3 G AGEG | GAcd e2 dc | cAGE C2
%Warning : No repeat expected, found :|
:|


